static/cards/FrenchDeck/cyberwave/card_clubs_Q.svg

<svg xmlns="http://www.w3.org/2000/svg" width="822" height="1122" fill="none" viewBox="0 0 822 1122"><rect width="822" height="1122" fill="#1a0033" rx="20"/><g fill="#fff066" clip-path="url(#a)"><path d="M139.971 182.168q-10.88 0-17.28-5.888-6.272-5.888-6.272-15.616-17.791-1.408-27.648-13.184t-9.856-32q0-14.208 4.992-24.448 4.993-10.24 14.464-15.616 9.473-5.376 22.656-5.376t22.656 5.376 14.464 15.616 4.992 24.448q0 20.864-10.496 32.768t-29.312 12.672q0 7.68 4.736 11.52 4.864 3.84 12.928 3.84 8.32 0 14.464-4.096.512-.384.896-.384.512 0 .896.768l1.792 2.816q.256.384.256.896 0 .768-.896 1.152-4.48 2.56-8.832 3.584-4.224 1.152-9.6 1.152m-18.944-27.136q16.769 0 26.112-10.112 9.344-10.24 9.344-29.44t-9.344-29.312q-9.344-10.24-26.112-10.24t-26.112 10.24Q85.57 96.28 85.571 115.48q0 19.2 9.344 29.44 9.344 10.112 26.112 10.112M141.309 231.337v-.004c0-11.782-9.224-21.333-20.603-21.333s-20.603 9.551-20.603 21.333c-11.379 0-20.603 9.552-20.603 21.334S88.724 274 100.103 274c10.386 0 18.977-7.957 20.397-18.305C121.92 266.043 130.511 274 140.897 274c11.379 0 20.603-9.551 20.603-21.333 0-11.64-9.002-21.102-20.191-21.33"/><rect width="5" height="33" x="118.5" y="251" rx="2.5"/><path d="M674.029 935.832q10.88 0 17.28 5.888 6.272 5.888 6.272 15.616 17.791 1.408 27.648 13.184t9.856 32q0 14.205-4.992 24.45c-3.328 6.82-8.149 12.03-14.464 15.61-6.315 3.59-13.867 5.38-22.656 5.38s-16.341-1.79-22.656-5.38c-6.315-3.58-11.136-8.79-14.464-15.61q-4.992-10.245-4.992-24.45 0-20.864 10.496-32.768t29.312-12.672q0-7.68-4.736-11.52-4.864-3.84-12.928-3.84-8.32 0-14.464 4.096-.512.384-.896.384-.512 0-.896-.768l-1.792-2.816a1.58 1.58 0 0 1-.256-.896q0-.768.896-1.152 4.48-2.56 8.832-3.584 4.224-1.152 9.6-1.152m18.944 27.136q-16.769 0-26.112 10.112-9.344 10.24-9.344 29.44t9.344 29.31c6.229 6.83 14.933 10.24 26.112 10.24s19.883-3.41 26.112-10.24q9.344-10.11 9.344-29.31t-9.344-29.44q-9.343-10.112-26.112-10.112M672.691 886.663v.004c0 11.782 9.224 21.333 20.603 21.333s20.603-9.551 20.603-21.333c11.379 0 20.603-9.552 20.603-21.334S725.276 844 713.897 844c-10.386 0-18.977 7.957-20.397 18.305C692.08 851.957 683.489 844 673.103 844c-11.379 0-20.603 9.551-20.603 21.333 0 11.64 9.002 21.102 20.191 21.33"/><rect width="5" height="33" x="695.5" y="867" rx="2.5" transform="rotate(-180 695.5 867)"/></g><path fill="#998a00" d="M517.951 488.236c-9.773-28.064 11.496-40.827 0-43.327s-38.93-24.864-45.462-29.541 6.375 23.682 6.793 34.711-8.361 34.3-12.802 44.558c17.505 25.356 55.861 6.203 51.471-6.401"/><path fill="#e6cf00" d="M464.909 502.119c34.047 23.003 49.415 2.903 53.977-5.432.894-1.633 3.004-2.357 4.651-1.489 16.075 8.483 27.948 8.341 35.917 5.94 3.135-.945 9.254 3.446 8.284 6.573-11.943 38.475-46.766 140.437-75.338 122.296-25.364-16.104-67.534-105.189-75.421-122.198-.715-1.542.004-3.327 1.605-3.898 8.436-3.012 33.216-10.648 46.325-1.792M515.715 259.763c-28.053-13.755-59.051-5.402-73.755 2.391-1.287.682-2.878.419-3.826-.686l-12.943-15.07c-2.186-2.546.82-6.214 3.745-4.57l5.639 3.167c2.149 1.208 4.757-.549 4.445-2.995l-1.333-10.447c-.355-2.789 2.977-4.491 5.028-2.568l9.956 9.335c1.851 1.735 4.886.532 5.046-2l.684-10.838c.172-2.732 3.612-3.825 5.33-1.694l9.848 12.217c1.575 1.954 4.71 1.226 5.262-1.223l2.114-9.384c.68-3.02 4.932-3.156 5.805-.187l2.908 9.897c.696 2.368 3.793 2.93 5.276.958l7.768-10.326c1.731-2.302 5.397-1.077 5.397 1.804v8.824c0 2.527 2.933 3.922 4.893 2.328l8.758-7.123c2.267-1.844 5.564.313 4.784 3.129l-6.417 23.155c-.52 1.876-2.664 2.763-4.412 1.906M532.953 282.771h-99.988l-7.853 66.402s25.586 42.793 55.491 67.606c17.537 14.55 66.517 43.41 71.719 17.601 2.335-11.581 4.734-55.856 4.734-55.856s15.526-.885 13.628-6.913c-1.899-6.027-7.593-7.862-13.628-36.427s-24.103-52.413-24.103-52.413"/><path fill="#fffacc" d="M434.276 270.192c55.163-24.837 83.886-5.103 95.402 7.415 2.839 3.085.058 7.264-4.125 6.998-30.821-1.953-64.164 12.026-70.593 15.986-10.211 6.29 0 71.806 19.636 120.55 12.568 23.324 38.121 94.134 18.851 101.682-18.169 7.116-62.36 12.461-82.712 7.777-2.081-.479-3.426-2.398-3.426-4.534V359.381l-.001-.123c-.061-1.854-2.278-75.898 26.968-89.066M555.236 406.728l-.523 8.386c-7.409 1.172-22.988-2.859-27.843-3.562-4.854-.703-5.621-.234-5.365-.937.255-.704-.256.937 4.854-.938s23.512-4.121 28.877-2.949"/><path fill="#f2e6ff" d="M533.183 322.081c-4.703-.083-10.237 1.525-13.524 2.63-1.179.396-1.648 1.614-.408 1.705 3.218.236 10.691-1.958 14.717-1.024 4.778 1.109 10.1 4.776 13.67 4.439.698-.066 1.165-.679 1.281-1.371.141-.84-.259-1.68-1.019-2.064-3.437-1.734-9.583-4.226-14.717-4.315"/><path fill="#998a00" d="M349.756 651.013c9.774 28.064-11.496 40.828 0 43.327 11.496 2.5 38.93 24.864 45.462 29.542 6.532 4.677-6.375-23.683-6.793-34.711-.418-11.029 8.361-34.301 12.803-44.558-17.506-25.356-55.861-6.204-51.472 6.4"/><path fill="#e6cf00" d="M402.799 637.13c-34.047-23.003-49.416-2.902-53.978 5.432-.893 1.633-3.004 2.358-4.65 1.489-16.076-8.483-27.949-8.34-35.918-5.939-3.134.944-9.254-3.447-8.283-6.574 11.942-38.474 46.766-140.437 75.338-122.296 25.364 16.105 67.534 105.19 75.421 122.199.715 1.542-.005 3.326-1.605 3.898-8.436 3.011-33.217 10.648-46.325 1.791M351.993 879.486c28.052 13.756 59.051 5.403 73.754-2.391 1.287-.682 2.878-.418 3.827.687l12.942 15.069c2.187 2.546-.819 6.214-3.745 4.57l-5.638-3.167c-2.15-1.207-4.757.55-4.445 2.995l1.332 10.447c.356 2.789-2.976 4.492-5.028 2.568l-9.956-9.334c-1.85-1.736-4.886-.533-5.046 1.999l-.683 10.839c-.173 2.731-3.613 3.824-5.33 1.694l-9.848-12.218c-1.575-1.954-4.711-1.225-5.263 1.224l-2.114 9.384c-.68 3.019-4.932 3.156-5.805.186l-2.908-9.897c-.695-2.367-3.792-2.929-5.276-.958l-7.767 10.326c-1.732 2.303-5.397 1.078-5.397-1.803v-8.825c0-2.527-2.933-3.922-4.893-2.327l-8.758 7.122c-2.267 1.844-5.564-.312-4.784-3.128l6.416-23.155c.52-1.876 2.665-2.764 4.413-1.907M334.755 856.479h99.988l7.852-66.403s-25.585-42.792-55.49-67.605c-17.538-14.551-66.517-43.411-71.72-17.602-2.334 11.582-4.734 55.856-4.734 55.856s-15.526.886-13.627 6.913 7.593 7.862 13.627 36.428 24.104 52.413 24.104 52.413"/><path fill="#fffacc" d="M433.431 869.058c-55.162 24.837-83.886 5.103-95.402-7.416-2.838-3.085-.058-7.263 4.126-6.998 30.821 1.954 64.164-12.026 70.593-15.986 10.211-6.289 0-71.806-19.637-120.55-12.567-23.324-38.121-94.134-18.851-101.681 18.169-7.116 62.36-12.462 82.712-7.777 2.082.479 3.427 2.398 3.427 4.534v166.684c0 .058-.001.065.001.123.06 1.855 2.278 75.899-26.969 89.067M312.471 732.522l.524-8.386c7.409-1.172 22.988 2.858 27.842 3.561 4.855.704 5.621.235 5.366.938s.255-.938-4.855.938-23.512 4.121-28.877 2.949"/><path fill="#f2e6ff" d="M334.525 817.169c4.703.082 10.236-1.526 13.523-2.63 1.179-.396 1.648-1.614.408-1.705-3.218-.236-10.691 1.957-14.717 1.023-4.777-1.109-10.1-4.775-13.67-4.439-.698.066-1.164.68-1.28 1.371-.141.84.258 1.681 1.019 2.064 3.437 1.734 9.583 4.226 14.717 4.316"/><defs><clipPath id="a"><path fill="#fff" d="M46 48h722v1022H46z"/></clipPath></defs></svg>

<svg width="822" height="1122" viewBox="0 0 822 1122" fill="none" xmlns="http://www.w3.org/2000/svg">
<rect width="822" height="1122" rx="20" fill="#1A0033"/>
<g clip-path="url(#clip0_25_326)">
<path d="M139.971 182.168C132.718 182.168 126.958 180.205 122.691 176.28C118.51 172.355 116.419 167.149 116.419 160.664C104.558 159.725 95.3417 155.331 88.771 147.48C82.2003 139.629 78.915 128.963 78.915 115.48C78.915 106.008 80.579 97.8587 83.907 91.032C87.235 84.2053 92.0563 79 98.371 75.416C104.686 71.832 112.238 70.04 121.027 70.04C129.816 70.04 137.368 71.832 143.683 75.416C149.998 79 154.819 84.2053 158.147 91.032C161.475 97.8587 163.139 106.008 163.139 115.48C163.139 129.389 159.64 140.312 152.643 148.248C145.646 156.184 135.875 160.408 123.331 160.92C123.331 166.04 124.91 169.88 128.067 172.44C131.31 175 135.619 176.28 140.995 176.28C146.542 176.28 151.363 174.915 155.459 172.184C155.8 171.928 156.099 171.8 156.355 171.8C156.696 171.8 156.995 172.056 157.251 172.568L159.043 175.384C159.214 175.64 159.299 175.939 159.299 176.28C159.299 176.792 159 177.176 158.403 177.432C155.416 179.139 152.472 180.333 149.571 181.016C146.755 181.784 143.555 182.168 139.971 182.168ZM121.027 155.032C132.206 155.032 140.91 151.661 147.139 144.92C153.368 138.093 156.483 128.28 156.483 115.48C156.483 102.68 153.368 92.9093 147.139 86.168C140.91 79.3413 132.206 75.928 121.027 75.928C109.848 75.928 101.144 79.3413 94.915 86.168C88.6857 92.9093 85.571 102.68 85.571 115.48C85.571 128.28 88.6857 138.093 94.915 144.92C101.144 151.661 109.848 155.032 121.027 155.032Z" fill="#FFF066"/>
<path d="M141.309 231.337C141.309 231.336 141.309 231.335 141.309 231.333C141.309 219.551 132.085 210 120.706 210C109.327 210 100.103 219.551 100.103 231.333C88.7243 231.333 79.5 240.885 79.5 252.667C79.5 264.449 88.7243 274 100.103 274C110.489 274 119.08 266.043 120.5 255.695C121.92 266.043 130.511 274 140.897 274C152.276 274 161.5 264.449 161.5 252.667C161.5 241.027 152.498 231.565 141.309 231.337Z" fill="#FFF066"/>
<rect x="118.5" y="251" width="5" height="33" rx="2.5" fill="#FFF066"/>
<path d="M674.029 935.832C681.282 935.832 687.042 937.795 691.309 941.72C695.49 945.645 697.581 950.851 697.581 957.336C709.442 958.275 718.658 962.669 725.229 970.52C731.8 978.371 735.085 989.037 735.085 1002.52C735.085 1011.99 733.421 1020.14 730.093 1026.97C726.765 1033.79 721.944 1039 715.629 1042.58C709.314 1046.17 701.762 1047.96 692.973 1047.96C684.184 1047.96 676.632 1046.17 670.317 1042.58C664.002 1039 659.181 1033.79 655.853 1026.97C652.525 1020.14 650.861 1011.99 650.861 1002.52C650.861 988.611 654.36 977.688 661.357 969.752C668.354 961.816 678.125 957.592 690.669 957.08C690.669 951.96 689.09 948.12 685.933 945.56C682.69 943 678.381 941.72 673.005 941.72C667.458 941.72 662.637 943.085 658.541 945.816C658.2 946.072 657.901 946.2 657.645 946.2C657.304 946.2 657.005 945.944 656.749 945.432L654.957 942.616C654.786 942.36 654.701 942.061 654.701 941.72C654.701 941.208 655 940.824 655.597 940.568C658.584 938.861 661.528 937.667 664.429 936.984C667.245 936.216 670.445 935.832 674.029 935.832ZM692.973 962.968C681.794 962.968 673.09 966.339 666.861 973.08C660.632 979.907 657.517 989.72 657.517 1002.52C657.517 1015.32 660.632 1025.09 666.861 1031.83C673.09 1038.66 681.794 1042.07 692.973 1042.07C704.152 1042.07 712.856 1038.66 719.085 1031.83C725.314 1025.09 728.429 1015.32 728.429 1002.52C728.429 989.72 725.314 979.907 719.085 973.08C712.856 966.339 704.152 962.968 692.973 962.968Z" fill="#FFF066"/>
<path d="M672.691 886.663C672.691 886.664 672.691 886.665 672.691 886.667C672.691 898.449 681.915 908 693.294 908C704.673 908 713.897 898.449 713.897 886.667C725.276 886.667 734.5 877.115 734.5 865.333C734.5 853.551 725.276 844 713.897 844C703.511 844 694.92 851.957 693.5 862.305C692.08 851.957 683.489 844 673.103 844C661.724 844 652.5 853.551 652.5 865.333C652.5 876.973 661.502 886.435 672.691 886.663Z" fill="#FFF066"/>
<rect x="695.5" y="867" width="5" height="33" rx="2.5" transform="rotate(-180 695.5 867)" fill="#FFF066"/>
</g>
<path d="M517.951 488.236C508.178 460.172 529.447 447.409 517.951 444.909C506.455 442.409 479.021 420.045 472.489 415.368C465.957 410.691 478.864 439.05 479.282 450.079C479.7 461.108 470.921 484.379 466.48 494.637C483.985 519.993 522.341 500.84 517.951 488.236Z" fill="#998A00"/>
<path d="M464.909 502.119C498.956 525.122 514.324 505.022 518.886 496.687C519.78 495.054 521.89 494.33 523.537 495.198C539.612 503.681 551.485 503.539 559.454 501.138C562.589 500.193 568.708 504.584 567.738 507.711C555.795 546.186 520.972 648.148 492.4 630.007C467.036 613.903 424.866 524.818 416.979 507.809C416.264 506.267 416.983 504.482 418.584 503.911C427.02 500.899 451.8 493.263 464.909 502.119Z" fill="#E6CF00"/>
<path d="M515.715 259.763C487.662 246.008 456.664 254.361 441.96 262.154C440.673 262.836 439.082 262.573 438.134 261.468L425.191 246.398C423.005 243.852 426.011 240.184 428.936 241.828L434.575 244.995C436.724 246.203 439.332 244.446 439.02 242L437.687 231.553C437.332 228.764 440.664 227.062 442.715 228.985L452.671 238.32C454.522 240.055 457.557 238.852 457.717 236.32L458.401 225.482C458.573 222.75 462.013 221.657 463.731 223.788L473.579 236.005C475.154 237.959 478.289 237.231 478.841 234.782L480.955 225.398C481.635 222.378 485.887 222.242 486.76 225.211L489.668 235.108C490.364 237.476 493.461 238.038 494.944 236.066L502.712 225.74C504.443 223.438 508.109 224.663 508.109 227.544V236.368C508.109 238.895 511.042 240.29 513.002 238.696L521.76 231.573C524.027 229.729 527.324 231.886 526.544 234.702L520.127 257.857C519.607 259.733 517.463 260.62 515.715 259.763Z" fill="#E6CF00"/>
<path d="M532.953 282.771H432.965L425.112 349.173C425.112 349.173 450.698 391.966 480.603 416.779C498.14 431.329 547.12 460.189 552.322 434.38C554.657 422.799 557.056 378.524 557.056 378.524C557.056 378.524 572.582 377.639 570.684 371.611C568.785 365.584 563.091 363.749 557.056 335.184C551.021 306.619 532.953 282.771 532.953 282.771Z" fill="#E6CF00"/>
<path d="M434.276 270.192C489.439 245.355 518.162 265.089 529.678 277.607C532.517 280.692 529.736 284.871 525.553 284.605C494.732 282.652 461.389 296.631 454.96 300.591C444.749 306.881 454.96 372.397 474.596 421.141C487.164 444.465 512.717 515.275 493.447 522.823C475.278 529.939 431.087 535.284 410.735 530.6C408.654 530.121 407.309 528.202 407.309 526.066V359.381C407.309 359.323 407.309 359.317 407.308 359.258C407.247 357.404 405.03 283.36 434.276 270.192Z" fill="#FFFACC"/>
<path d="M555.236 406.728L554.713 415.114C547.304 416.286 531.725 412.255 526.87 411.552C522.016 410.849 521.249 411.318 521.505 410.615C521.76 409.911 521.249 411.552 526.359 409.677C531.469 407.802 549.871 405.556 555.236 406.728Z" fill="#FFFACC"/>
<path d="M533.183 322.081C528.48 321.998 522.946 323.606 519.659 324.711C518.48 325.107 518.011 326.325 519.251 326.416C522.469 326.652 529.942 324.458 533.968 325.392C538.746 326.501 544.068 330.168 547.638 329.831C548.336 329.765 548.803 329.152 548.919 328.46C549.06 327.62 548.66 326.78 547.9 326.396C544.463 324.662 538.317 322.17 533.183 322.081Z" fill="#F2E6FF"/>
<path d="M349.756 651.013C359.53 679.077 338.26 691.841 349.756 694.34C361.252 696.84 388.686 719.204 395.218 723.882C401.75 728.559 388.843 700.199 388.425 689.171C388.007 678.142 396.786 654.87 401.228 644.613C383.722 619.257 345.367 638.409 349.756 651.013Z" fill="#998A00"/>
<path d="M402.799 637.13C368.752 614.127 353.383 634.228 348.821 642.562C347.928 644.195 345.817 644.92 344.171 644.051C328.095 635.568 316.222 635.711 308.253 638.112C305.119 639.056 298.999 634.665 299.97 631.538C311.912 593.064 346.736 491.101 375.308 509.242C400.672 525.347 442.842 614.432 450.729 631.441C451.444 632.983 450.724 634.767 449.124 635.339C440.688 638.35 415.907 645.987 402.799 637.13Z" fill="#E6CF00"/>
<path d="M351.993 879.486C380.045 893.242 411.044 884.889 425.747 877.095C427.034 876.413 428.625 876.677 429.574 877.782L442.516 892.851C444.703 895.397 441.697 899.065 438.771 897.421L433.133 894.254C430.983 893.047 428.376 894.804 428.688 897.249L430.02 907.696C430.376 910.485 427.044 912.188 424.992 910.264L415.036 900.93C413.186 899.194 410.15 900.397 409.99 902.929L409.307 913.768C409.134 916.499 405.694 917.592 403.977 915.462L394.129 903.244C392.554 901.29 389.418 902.019 388.866 904.468L386.752 913.852C386.072 916.871 381.82 917.008 380.947 914.038L378.039 904.141C377.344 901.774 374.247 901.212 372.763 903.183L364.996 913.509C363.264 915.812 359.599 914.587 359.599 911.706V902.881C359.599 900.354 356.666 898.959 354.706 900.554L345.948 907.676C343.681 909.52 340.384 907.364 341.164 904.548L347.58 881.393C348.1 879.517 350.245 878.629 351.993 879.486Z" fill="#E6CF00"/>
<path d="M334.755 856.479H434.743L442.595 790.076C442.595 790.076 417.01 747.284 387.105 722.471C369.567 707.92 320.588 679.06 315.385 704.869C313.051 716.451 310.651 760.725 310.651 760.725C310.651 760.725 295.125 761.611 297.024 767.638C298.923 773.666 304.617 775.5 310.651 804.066C316.686 832.631 334.755 856.479 334.755 856.479Z" fill="#E6CF00"/>
<path d="M433.431 869.058C378.269 893.895 349.545 874.161 338.029 861.642C335.191 858.557 337.971 854.379 342.155 854.644C372.976 856.598 406.319 842.618 412.748 838.658C422.959 832.369 412.748 766.852 393.111 718.108C380.544 694.784 354.99 623.974 374.26 616.427C392.429 609.311 436.62 603.965 456.972 608.65C459.054 609.129 460.399 611.048 460.399 613.184L460.399 779.868C460.399 779.926 460.398 779.933 460.4 779.991C460.46 781.846 462.678 855.89 433.431 869.058Z" fill="#FFFACC"/>
<path d="M312.471 732.522L312.995 724.136C320.404 722.964 335.983 726.994 340.837 727.697C345.692 728.401 346.458 727.932 346.203 728.635C345.947 729.338 346.458 727.697 341.348 729.573C336.238 731.448 317.836 733.694 312.471 732.522Z" fill="#FFFACC"/>
<path d="M334.525 817.169C339.228 817.251 344.761 815.643 348.048 814.539C349.227 814.143 349.696 812.925 348.456 812.834C345.238 812.598 337.765 814.791 333.739 813.857C328.962 812.748 323.639 809.082 320.069 809.418C319.371 809.484 318.905 810.098 318.789 810.789C318.648 811.629 319.047 812.47 319.808 812.853C323.245 814.587 329.391 817.079 334.525 817.169Z" fill="#F2E6FF"/>
<defs>
<clipPath id="clip0_25_326">
<rect width="722" height="1022" fill="white" transform="translate(46 48)"/>
</clipPath>
</defs>
</svg>
